X:1
T:O Breath of Life
T:Text: Elizabeth Ann P. Head (1850-1936) Tune: Mary J. Hammond (1878-1964)
T:98 98 SPIRITUS VITAE www.hymnary.org/text/o_breath_of_life_come_sweeping_through_u
T:O Breath of Life
T:This hymn is in the public domain.  You may freely use this score for personal and congregational worship.  If you reproduce the score, please credit Hymnary.org as the source. 
T:This hymn is in the public domain.  You may freely use this score for personal and congregational worship.  If you reproduce the score, please credit Hymnary.org as the source. 
Z:This hymn is in the public domain.  You may freely use this score for personal and congregational worship.  If you reproduce the score, please credit Hymnary.org as the source.
%%score ( 1 2 ) ( 3 4 )
L:1/8
M:4/4
K:D
V:1 treble nm="Piano" snm="Pno."
V:2 treble 
V:3 bass nm="Piano" snm="Pno."
V:4 bass 
V:1
 [Fd]4 [Fc]2 [FA]2 | [DB]2 [DG]2 [CF]2 [CE]2 | [EA]4 [DA]4 | D4 D2 E2 | [DF]2 [FA]2 F3 E | E8 | %6
w: 3~O Breath of|Love, come breathe with-|in us,|re- ne- wing|thought and will and|heart;|
w: 1~O Breath of|Life, come sweep- ing|through us,|re- vive your|church with life and|power;|
w: 2~O Wind of|God, come bend us,|break us,|till hum- bly|we con- fess our|need;|
 [Dd]4 [Fc]2 [FA]2 | [DB]2 [DG]2 [CF]2 E2 | [CA]4 [DA]4 | D4 D2 E2 | [DF]2 [CA]2 E3 D | [DD]8 |] %12
w: come, Love of|Christ, a- fresh to|win us,|re- vive your|church in ev- ery|part!|
w: O Breath of|Life, come, cleanse, re-|new us,|And fit your|church to meet this|hour.|
w: then in your|ten- der- ness re-|make us,|re- vive, re-|store for this we|plead.|
V:2
 x8 | x8 | x8 | D4 C2 B,C | x4 D2 D2 | (D4 C4) | x8 | x6 D2 | x8 | D4 D2 B,C | x4 D2 C2 | x8 |] %12
V:3
 [D,A,]4 [F,A,]2 [F,C]2 | [G,B,]2 [G,,B,]2 A,2 A,2 | [F,,A,]4 [F,,A,]4 | %3
 [B,,F,]4 [A,,F,]2 [G,,E,]2 | [F,,A,]2 [F,,C]2 [G,,B,]2 [^G,,B,]2 | [A,,A,]8 | %6
 (F,2 B,2) [F,A,]2 [F,C]2 | [G,B,]2 [G,,B,]2 [G,,^A,]2 [G,,B,]2 | =A,4 [F,A,]4 | %9
 [G,B,]4 [F,A,]2 [E,G,]2 | [D,A,]2 [F,,F,]2 [G,,B,]2 [A,,G,]2 | [D,F,]8 |] %12
V:4
 x8 | x4 A,,3 G,, | x8 | x8 | x8 | x8 | B,,4 x4 | x8 | G,4 x4 | x8 | x8 | x8 |] %12

